!!!OTL: Wie hehr im Glase blinket et.
!!!OTL-incipit: WIE HEHR IM GLASE BLINKET
!!!COM: C. Spazier
!!!ARE: Europa, Mitteleuropa, Deutschland
!!!SCT: F0701
!!!YEM: Copyright 1995, estate of Helmut Schaffrath.
**kern	**text
*ICvox	*
*M4/4	*
*k[f#c#]	*
*D:	*
!LO:TX:a:t=Frisch und fest.	!
!LO:TX:a:t=Für vier Männerſtimmen, oder einſtimmig mit Begleitung.	!
!LO:TX:a:t=P:only the highest voice encoded:problem	!
{4a	1._Wie
=1	=1
4dd/	hehr
4d	im
4f#	Gla-
4d	-ſe
=2	=2
(>4.a	blin-
8b/)	.
4a}	-ket
{4ee/	der
=3	=3
4ff#/	kö-
4ee/	-nig-
4dd/	-li-
4ff#/	-che
=4	=4
2ee/	Wein!
4r}	.
{4a	wie
=5	=5
4dd/	ſtrömt
4a/	ſein
4ff#/	Blut,
4ff#/	o
=6	=6
(>4.ee/	trin-
8dd/)	.
4cc#/}	-ket
{4cc#/	und
=7	=7
4dd/	laßt
4ee/	uns
4ff#/	fröh-
8dd/L	-lich
8bJ	.
=8	=8
2a	ſein!
4r}	.
{4a	doch
=9	=9
4ee/	färbt
4a	ein
4ff#/	Re-
4a	-ben-
=10	=10
(>4.gg/	-haſ-
8ff#/)	.
4ee/}	-ſer
{4ee/	den
=11	=11
4.ff#/	Feu-
8ff#/	-er-
4ff#/	-trank
4ff#/	mit
=12	=12
(>4.dd/	Waſ-
8cc#/)	.
4b/	-ſer,
4r}	.
=13	=13
{2gg/	friſch
8gg/	trommelt
8gg/	.
8gg/	auf
8gg/	den
=14	=14
2gg/	Tiſch,
2r}	.
=15	=15
{2ee/	friſch
8ee/	trommelt
8ee/	.
8ee/	auf
8ee/	den
=16	=16
2ee/	Tiſch,
4r}	.
{4ee	und
=17	=17
4ff#	gebt
4dd/	ihm
4b/	kla-
4g#	-res
=18	=18
1a	Waſ-
=19	=19
2d	-ſer.
4r}	.
==	==
!!!AGN: Geselligkeits -, Trink - Lied
!!!ONB: ESAC (Essen Associative Code) Database: FINK
!!!AMT: simple quadruple
!!!AIN: vox
!!!EED: Helmut Schaffrath
!!!EEV: 1.0
!!!RDF**kern: > = above
!!Text: Voss
!!!GTL: Liedertafel- und Gesellschaftslieder
!!!source: Musikalischer Hausschatz der Deutschen. Eine Sammlung von über 1000 Liedern und Gesängen mit Singstimmen und Klavierbegleitung. Leipzig, Litterarisches Verlags-Haus.
!!!page: 471
!!!URL-scan: https://www.digitale-sammlungen.de/en/view/bsb11144622?page=422
!!!ENC: Anna Maria Matuszewska
!!!EEV: 2024/08/05
*-	*-
